icon-themes/sifr_svg/cmd/sc_mailmergesavedocuments.svg

<svg viewBox="0 0 16 16" xmlns="http://www.w3.org/2000/svg"><path d="m2 1v14h3v-2h-1v-10h8v4h2v-6zm4.5 7c-.277 0-.5.223-.5.5v7c0 .277.2.5.5.5h1.5v-4h6v4h1.5c.277 0 .5-.223.5-.5v-7c0-.277-.223-.5-.5-.5zm2.5 5v3h1v-2h1v2h2v-3z" fill="#555753"/></svg>

<svg xmlns="http://www.w3.org/2000/svg" viewBox="0 0 16 16">
  <path
     style="fill:#555753"
     d="M 2 1 L 2 15 L 5 15 L 5 13 L 4 13 L 4 3 L 12 3 L 12 7 L 14 7 L 14 1 L 2 1 z M 6.5 8 C 6.223 8 6 8.223 6 8.5 L 6 15.5 C 6 15.777 6.2 16 6.5 16 L 8 16 L 8 12 L 14 12 L 14 16 L 15.5 16 C 15.777 16 16 15.777 16 15.5 L 16 8.5 C 16 8.223 15.777 8 15.5 8 L 6.5 8 z M 9 13 L 9 16 L 10 16 L 10 14 L 11 14 L 11 16 L 13 16 L 13 13 L 9 13 z "
     />
</svg>
